src/assets/icons/weeks,simple,14.svg

<svg width="48" height="48" viewBox="0 0 48 48" fill="none" xmlns="http://www.w3.org/2000/svg">
<rect opacity="0.2" x="5" y="5" width="38" height="38" rx="4" fill="black"/>
<path d="M5 13C5 9.22876 5 7.34315 6.17157 6.17157C7.34315 5 9.22876 5 13 5H35C38.7712 5 40.6569 5 41.8284 6.17157C43 7.34315 43 9.22876 43 13V15H5V13Z" fill="black"/>
<path d="M19.0046 20.5455H15.5359L11.2148 23.2812V26.554L15.212 24.0483H15.3143V38H19.0046V20.5455ZM22.8888 34.9318H31.2667V38H34.7951V34.9318H36.9599V31.9744H34.7951V20.5455H30.1758L22.8888 32.0256V34.9318ZM31.3349 31.9744H26.6048V31.8381L31.1985 24.5682H31.3349V31.9744Z" fill="black"/>
</svg>

<svg xmlns="http://www.w3.org/2000/svg" width="48" height="48" fill="none" viewBox="0 0 48 48">
  <rect width="38" height="38" x="5" y="5" fill="#000" opacity=".2" rx="4"/>
  <path fill="#000" d="M5 13c0-3.771 0-5.657 1.172-6.828C7.343 5 9.229 5 13 5h22c3.771 0 5.657 0 6.828 1.172C43 7.343 43 9.229 43 13v2H5v-2zM19.005 20.546h-3.47l-4.32 2.735v3.273l3.997-2.506h.102V38h3.69V20.546zm3.884 14.386h8.378V38h3.528v-3.068h2.165v-2.958h-2.165V20.546h-4.62l-7.286 11.48v2.906zm8.446-2.958h-4.73v-.136l4.593-7.27h.137v7.406z"/>
</svg>
